src/renderer/assets/svg/icon-upload-keystore.svg

<svg width="19" height="18" viewBox="0 0 19 18" fill="none" xmlns="http://www.w3.org/2000/svg">
<path d="M15.7118 13.0077V15.2323H3.29769V13.0077C3.29769 12.6655 3.01934 12.3876 2.67745 12.3876C2.33535 12.3876 2.05728 12.6656 2.05728 13.0077V15.8524C2.05728 16.1428 2.25763 16.387 2.52745 16.4542V16.4725H2.67745H16.3319C16.6738 16.4725 16.9521 16.1945 16.9521 15.8524V13.0077C16.9521 12.6655 16.6738 12.3876 16.3319 12.3876C15.9899 12.3876 15.7118 12.6656 15.7118 13.0077Z" fill="#50E3C2" stroke="#50E3C2" stroke-width="0.3"/>
<path d="M8.86917 3.67803V13.5769C8.86917 13.919 9.14739 14.197 9.48944 14.197C9.83135 14.197 10.1095 13.919 10.1095 13.5769V3.65003L13.7185 7.25604C13.7186 7.25614 13.7187 7.25623 13.7188 7.25632C13.8359 7.37395 13.9924 7.43899 14.1582 7.43899C14.3229 7.43899 14.4785 7.3746 14.5954 7.25866L14.5954 7.25861C14.7126 7.14224 14.7781 6.98638 14.7786 6.821V6.82076C14.7789 6.65544 14.7148 6.49895 14.5977 6.3817L14.5977 6.38169L9.99099 1.77181C9.99098 1.7718 9.99097 1.77179 9.99096 1.77178C9.874 1.65425 9.71646 1.58998 9.54966 1.5893L9.54831 1.58925C9.5479 1.58919 9.54746 1.58911 9.54697 1.58901L9.52532 1.57803H9.48946C9.40243 1.57803 9.3189 1.59743 9.23558 1.63399C9.15547 1.66518 9.08366 1.71109 9.02362 1.77113C9.0236 1.77114 9.02359 1.77115 9.02358 1.77116L4.41327 6.37803C4.41323 6.37807 4.4132 6.37811 4.41316 6.37814C4.29593 6.49491 4.23108 6.65102 4.23098 6.81633L4.38098 6.81642M8.86917 3.67803L9.29292 1.77264C9.22989 1.79674 9.17492 1.83195 9.12964 1.87723L4.5191 6.48434C4.43006 6.57298 4.38105 6.69092 4.38098 6.81642M8.86917 3.67803L5.28983 7.25602L5.28932 7.25653C5.17207 7.37262 5.01604 7.43717 4.85138 7.43717C4.68575 7.43717 4.52933 7.37235 4.41251 7.25496M8.86917 3.67803L5.18378 7.14994C5.09442 7.23842 4.97625 7.28717 4.85138 7.28717C4.72546 7.28717 4.60727 7.23811 4.51867 7.14898M4.38098 6.81642C4.3808 6.94192 4.4297 7.06002 4.51867 7.14898M4.38098 6.81642L4.23098 6.8162C4.23074 6.98164 4.2955 7.13791 4.41251 7.25496M4.51867 7.14898L4.41229 7.25474C4.41236 7.25481 4.41244 7.25489 4.41251 7.25496M4.51867 7.14898L4.4126 7.25505C4.41257 7.25502 4.41254 7.25499 4.41251 7.25496" fill="#50E3C2" stroke="#50E3C2" stroke-width="0.3"/>
</svg>

<svg xmlns="http://www.w3.org/2000/svg" width="19" height="18" fill="none" viewBox="0 0 19 18"><path fill="#50E3C2" stroke="#50E3C2" stroke-width=".3" d="M15.712 13.008v2.224H3.298v-2.224a.62.62 0 0 0-1.24 0v2.844c0 .29.2.535.47.602v.018h13.804a.62.62 0 0 0 .62-.62v-2.844a.62.62 0 0 0-1.24 0Z"/><path fill="#50E3C2" stroke="#50E3C2" stroke-width=".3" d="M8.87 3.678v9.899a.62.62 0 0 0 1.24 0V3.65l3.609 3.606a.617.617 0 0 0 .876.003.616.616 0 0 0 .002-.877l-4.606-4.61a.622.622 0 0 0-.441-.183h-.003l-.022-.011H9.49c-.087 0-.17.02-.253.056a.611.611 0 0 0-.212.137l-4.61 4.607a.616.616 0 0 0-.183.438h.15M8.87 3.678l.424-1.905a.462.462 0 0 0-.163.104L4.52 6.484a.466.466 0 0 0-.139.332m4.488-3.138L5.29 7.256a.62.62 0 0 1-.876-.001M8.87 3.678 5.184 7.15a.47.47 0 0 1-.665-.001m-.138-.333c0 .126.049.244.138.333m-.138-.333h-.15c0 .166.064.322.182.439m.106-.106-.107.106m.107-.106-.106.106"/></svg>
